X:374
T:Quick Step. RH.374
R:march
S:Rev.R.Harrison’s MS,c1815,Cumbria
O:England
A:Temple Sowerby,Cumbria
Z:vmp.Simon Wilson. Review PJH, 2008.
M:2/4
L:1/8
Q:1/4=100
K:G
d|.g.g.g.d|.b.b.bg|.d’.d’.d’.g|.f.a.d.f|\
.g.g.g.d|.b.b.b.g|(d’c’).b.f|g2z|!
d|(c’a).a.a|(bg).g.g|.f.g.a.f|g/f/g/a/ gd|\
(c’a).a.a|(bg).g.g|fgaf|g2z|!
B|(e/f/)(g/f/) (e/f/)(g/f/)|ee’ef|gfe^d|e/^d/e/f/ eB|\
e/f/g/f/ e/f/g/f/|ee’ef|gfe^d|e2z|]

